img/img_elements_visuels/poisson_08_bleu_orange_mauve.svg

<svg xmlns="http://www.w3.org/2000/svg" width="1343" height="753" fill="none"><path fill="#FF9166" d="M591.997 90.318c-106.491 12.127-227.631 125.355-274.889 180.453l-53.313 40.099c134.005 26.188 407.083 78.942 427.354 80.45 25.338 1.885 82.437-18.928 147.851-61.677 65.413-42.749-64.321-131.967-96.092-151.246-31.771-19.28-79.8-24.941-.013-55.97 63.83-24.823 69.953-37.33 65.036-40.48-27.607-2.262-109.444-3.756-215.934 8.371Z"/><path fill="#92BED7" d="M517.786 290.634C168.135 251.528 96.826 437.855 85.323 440.155c-13.035 4.602-43.246 13.804-59.808 13.804-20.703 0-18.403 0-9.201 11.501 9.2 11.502 16.102 13.802-9.202 20.703-25.304 6.901 20.703 27.604 78.211 92.014 57.509 64.409 117.317 89.712 193.228 126.518 75.911 36.805 292.143 48.307 480.77 48.307s218.532-105.816 250.739-135.72c25.76-23.923 84.34-9.968 110.41 0 13.04 24.537 61.65 82.812 151.83 119.617 112.71 46.007 46-89.713 27.6-119.617-18.4-29.904-27.6-27.604-27.6-103.515s0-41.406 27.6-87.412c27.6-46.007-4.6-121.918-27.6-112.717-18.41 7.361-108.89 108.883-151.83 158.723-39.1 11.502-122.375 23.924-142.617-18.402-25.304-52.908-110.416-124.219-460.067-163.325Z"/><path fill="#7E82E1" d="M622.054 569.826c73.847-107.34-116.356-111.898-174.322-117.07-27.802-7.594-55.574-9.05-68.626-.282-16.315 10.959 35.69 102.843 39.96 108.732 13.396 18.478 20.963 33.127 36.399 48.381 15.436 15.254 67.105 8.228 50.607-11.502-13.197-15.784-9.405-25.328-6.128-34.773 2.321 23.09 79.739 56.438 122.11 6.514Z"/><ellipse cx="34.938" cy="37.788" fill="#fff" rx="34.938" ry="37.788" transform="matrix(.98201 -.18882 .20845 .97803 142.622 413.453)"/><ellipse cx="27.141" cy="27.483" fill="#000" rx="27.141" ry="27.483" transform="matrix(.98495 -.17286 .19095 .9816 152.272 421.232)"/><path fill="#7E82E1" d="m1120.26 616.489 2.3-144.921 92.02-105.814c12.26-18.403 46.46-57.049 66.71-55.209 25.3 2.3 32.2 66.71 32.2 92.014 0 20.243-18.4 36.805-29.9 48.307-6.91 11.502-11.51 28.288-11.51 50.607 0 46.007 5.37 72.844 11.51 85.113 28.37 48.306 85.11 149.981 39.1 161.023-46.01 11.041-179.42-71.311-202.43-131.12ZM604.988 110.416c-50.608 6.901-115.017 46.007-165.624 80.512-40.437 27.57-111.775 83.442-142.508 108.025l29.791-6.811c45.24-26.837 147.682-89.713 195.529-126.518 59.808-46.007 140.32-41.406 181.726-46.007 33.125-3.68 78.211-18.402 96.614-25.303h-52.908c-9.201 0-92.013 9.201-142.62 16.102Z"/><path fill="#7E82E1" d="M627.991 135.72c16.103-2.301 96.614-6.901 98.914-6.901l-13.802 6.901c-8.434 0-28.524.46-41.405 2.3-16.103 2.3-48.307 25.304-57.509 29.904-9.201 4.601-98.914 50.608-119.617 69.01-16.563 14.722-75.911 38.339-103.515 48.307l-43.706 4.601c30.671-12.268 101.674-43.246 140.32-69.01 48.307-32.205 124.218-82.812 140.32-85.112Z"/><path fill="#7E82E1" d="M563.581 218.531c27.604-13.802 27.604-11.502 59.809-41.407 25.763-23.923 61.342-28.37 75.911-27.604l4.6 6.903c-3.834 0-13.342-1.841-20.703 0-9.201 2.3-11.501 9.201-29.904 27.603-18.403 18.403-23.003 16.103-69.01 39.106-36.805 18.403-92.013 49.074-115.017 62.109h-36.805c34.505-17.636 109.036-55.668 131.119-66.71ZM692.4 177.126c7.361-9.202 15.335-15.336 18.402-16.103l11.502 6.901c-5.367 2.301-17.022 9.662-20.703 20.703-4.601 13.802 0 16.103-6.901 25.304-6.901 9.201-18.402 50.607-85.112 57.508-53.368 5.521-74.378 16.103-78.211 20.703l-32.205-6.901c1.533-1.533 5.981-5.06 11.502-6.901 6.901-2.3 32.204-9.201 66.709-16.102s94.314-52.908 103.515-64.409c9.202-11.502 2.301-9.202 11.502-20.703Z"/><path fill="#7E82E1" d="M729.205 200.128c1.84-16.562 11.501-19.169 16.102-18.402l9.201 4.601c-2.3 0-8.281 6.441-13.802 32.205-6.901 32.204 29.905 11.501 36.806 34.505 6.901 23.003-39.106 29.904-59.809 32.204-20.703 2.301-23.003 4.601-43.706 9.202-16.563 3.68-32.972 9.201-39.106 11.501l-27.604-6.901c16.869-6.134 52.448-18.862 59.809-20.703 9.201-2.3 36.805-6.901 46.006-11.501 9.202-4.601 11.502-16.103 11.502-29.905s2.3-16.103 4.601-36.806Z"/><path fill="#7E82E1" d="M798.215 246.136c0-14.722-4.6-29.905-6.901-34.505l13.802 11.501s-4.14-.46-2.3 6.901c2.3 9.202 4.601 11.502 11.502 29.905 6.901 18.402 0 13.802-4.601 29.904s-16.102 11.502-39.106 23.003c-18.402 9.202-23.003 13.036-23.003 13.802l-27.604-9.201 6.901-6.901c4.601-3.067 15.642-10.121 23.003-13.802 9.202-4.601 25.304-9.201 41.406-23.003 16.103-13.802 6.901-9.202 6.901-27.604Z"/><path fill="#3844B2" d="m395.656 457.765-13.802-6.901 16.105-4.599c6.134 3.067 19.783 9.661 25.303 11.5 6.901 2.3 6.901 9.203 6.901 18.404s4.601 16.102 6.901 18.403c2.301 2.3 9.202-2.301 16.103-2.301 6.901 0 16.102 4.601 20.703 16.103 4.6 11.501-2.301 13.802-4.601 18.402-2.057 4.115 2.3 4.601 4.601 13.802 1.84 7.361 13.035 16.869 18.402 20.703 0 2.301-2.76 6.441-13.802 4.601-13.802-2.3-18.402-25.304-20.703-29.904-2.3-4.601-2.3-6.901-4.6-20.703-2.301-13.802-9.202-9.202-18.403-9.202-9.201 0-6.901-6.901-11.502-16.102-4.6-9.201 0-6.901-2.3-16.102-2.3-9.202-6.903-6.902-25.306-16.104ZM441.665 453.166c.318 0 .767.131 1.348.389 5.77 1.678 15.958 4.813 19.355 6.512 4.601 2.3 20.703 11.501 27.604 13.802 6.901 2.3 23.003 11.501 25.304 13.802 2.3 2.3 6.901 25.303 9.201 36.805 2.3 11.502 4.601 18.403 13.802 34.505 9.201 16.102 41.406 20.703 43.706 32.205 2.301 11.501-36.805-13.802-41.406-16.103-4.6-2.3-23.003-25.303-32.204-36.805-9.202-11.502-4.601-23.003-4.601-34.505 0-11.502-18.403-20.703-34.505-32.205-13.878-9.913-22.63-16.408-26.256-18.013-.482-.141-.934-.271-1.348-.389ZM512.975 464.667c-9.201-3.68-17.635-7.667-20.703-9.201 8.435.767 28.985 4.601 34.505 4.601 6.901 0 18.403 6.901 23.004 11.501 4.6 4.601 0 25.304 0 41.406 0 16.103 6.901 18.403 20.703 18.403s32.204 6.901 41.406 11.502c9.201 4.6 6.901 9.201 6.901 13.802 0 4.6-6.901 2.3-6.901-2.301 0-4.6-23.004-13.802-32.205-11.501-9.201 2.3-16.102 4.6-20.703 0-4.601-4.601-13.802-20.703-16.102-29.905-2.301-9.201-2.301-18.402-4.601-29.904-2.3-11.502-13.802-13.802-25.304-18.403Z"/><path fill="#3844B2" d="m568.183 483.07-6.901-16.102 9.202 9.201c3.067 5.367 9.661 16.562 11.501 18.403 2.301 2.3 13.802 2.3 25.304 4.6 11.502 2.301 11.502 6.901 16.102 9.202 4.601 2.3 4.601 16.102 4.601 18.402 0 2.301-6.901 2.301-11.502-2.3-4.6-4.601-9.201-9.201-27.604-13.802-18.402-4.601-13.802-11.502-20.703-27.604ZM384.154 485.37c-11.041-11.041-9.202-22.236-6.901-25.303 3.833.766 11.5 5.981 11.5 11.501 0 6.901 9.202 13.802 18.403 20.703 9.201 6.901 6.905 16.103 16.106 23.004 9.202 6.901 13.802 2.3 16.103 20.703 2.3 18.402-2.301 16.102 0 25.303 1.84 7.361 12.268 32.205 11.501 34.505 0 7.668-.924 3.221-4.604-2.3-4.601-6.901-13.802-29.904-16.103-50.607-2.3-20.703-11.501-23.004-20.703-34.505-9.201-11.502-11.5-9.202-25.302-23.004Z"/><path fill="#3844B3" d="M618.79 545.179c20.242-23.923-18.403-59.809-39.106-73.611 17.636 3.834 57.968 19.783 59.809 43.707 2.3 29.904-4.601 34.505-20.703 62.109-16.103 27.604-75.911 18.402-94.314 11.501-14.209-5.328-23.003-13.802-25.304-23.003 0 2.3 1.841 4.141 0 11.502-2.3 9.201 6.901 9.201 9.202 13.802 2.3 4.6 6.901 20.703-13.802 32.204-16.563 9.202-39.106-9.968-48.307-20.703l-25.304-39.105c9.201 2.3 29.904 12.421 39.106 34.505 9.201 22.083 18.402 17.636 27.604 11.501 4.6-4.6 4.6-11.501 2.3-16.102-2.3-4.601-11.502-4.601-11.502-34.505 0-23.923 21.47-13.035 32.205-4.601 13.035 7.668 39.566 23.004 41.406 23.004 2.3 0 41.406-2.301 66.71-32.205Z"/><path fill="#3844B2" d="M1122.56 494.571v-23.004c3.84.767 12.42 1.841 16.1.001 4.6-2.301 55.21-32.205 59.81-43.707 4.6-11.501 25.31-25.303 43.71-41.405 18.4-16.103 25.3-13.803 41.4-27.605 12.89-11.042 20.71-7.668 23.01-4.601v11.502c-2.3.767-4.14 0-11.5 0-9.2 0-43.71 34.505-57.51 43.706-13.8 9.202-25.31 29.905-48.31 48.307-18.4 14.722-52.14 30.671-66.71 36.806ZM1122.56 529.076v-22.891c3.84.763 12.42 1.832 16.1.001 4.6-2.29 31.38-29.58 43.71-30.017 9.2-.327 57.51-27.683 75.91-43.707 18.4-16.023 27.61-16.17 43.71-29.904 12.88-10.988 6.9 1.549 9.2 4.601l-2.3 6.9c-2.3.763-6.44 16.102-13.8 16.102-9.2 0-36.81 13.847-50.61 23.004-13.8 9.156-32.21 20.973-55.21 39.285-18.4 14.651-52.14 30.522-66.71 36.626ZM1121.15 555.68v-20.8c3.74 3.02 17.14 9.024 26.12 7.212 11.23-2.265 26.96-13.588 49.42-27.175 22.47-13.588 20.22-11.323 26.96-15.852 5.39-3.624 26.21-6.039 35.94-6.794.75 8.303 1.8 24.91 0 24.91-2.25 0-15.72 0-35.94 2.265s-65.15 33.969-74.13 36.234c-7.19 1.811-22.38.755-28.37 0ZM1120.26 591.185l1.11-23.003c1.53.767 6.25 2.3 8.09 2.3 2.3 0 25.31 0 43.71-6.901 18.4-6.901 23-6.901 41.41-9.201 18.4-2.301 50.6-2.301 52.9 0 1.84 1.84 3.84 13.035 4.61 18.402-2.31.767-9.21 2.301-18.41 2.301-11.5 0-18.4 0-39.1-2.301-20.71-2.3-29.91 0-46.01 4.601-16.1 4.601-16.1 6.901-29.9 13.802-11.05 5.521-16.87 3.067-18.41 0ZM1150.17 625.691c-12.88-12.882-25.31-9.202-29.91-9.202v-4.601c-.01-11.501 57.51 11.502 59.81 18.403 2.3 6.901 13.8 4.601 34.51 16.103 20.7 11.501 34.5-2.301 41.4 0 5.52 1.84 37.57 6.901 52.91 9.201l13.8 32.205c-3.07 3.067-10.58 8.741-16.1 6.901-6.9-2.301-13.8-11.502-29.9-20.703-16.11-9.202-23.01-4.601-36.81 2.3s-20.7-4.601-48.31-23.003c-27.6-18.403-25.3-11.502-41.4-27.604Z"/><path fill="#3844B2" d="M1258.28 602.687c23-4.6 16.1-4.6 20.7-4.6l4.6 6.9c-6.13 3.834-19.32 13.342-23 20.703-4.6 9.202-25.3-1.505-59.81-13.007-34.5-11.502-80.51-4.227-80.51-11.501v-5.395c-2.3-4.601 16.56 4.599 18.4 4.599h.01c2.3 0 20.7 0 41.4-2.299 20.7-2.301 20.7 0 29.9 2.3 9.21 2.3 25.31 6.901 48.31 2.3Z"/><path fill="#3844B2" d="M1239.88 333.548c-14.72 11.041-84.35 96.614-117.32 138.02 5.52 0 16.1-4.601 20.71-6.901 22.23-26.07 67.16-79.131 69.01-82.812 2.3-4.6 23-20.703 46-48.307 23.01-27.605 27.61 0 41.41 32.205 13.8 32.205-11.5 69.01-16.1 71.31-4.61 2.301-27.61 39.106-29.91 50.608-2.3 11.501 0 75.91 36.81 140.32 36.8 64.409 34.5 87.412 32.2 101.214-2.3 13.802-55.21-9.201-89.71-20.703-34.51-11.501-112.72-94.313-112.72-92.013 0 1.84 7.67 17.636 18.4 32.205 20.71 25.303 111.8 91.553 154.13 98.914 42.32 7.361 47.54-4.601 48.3-13.802 4.6-20.703-6.9-66.71-29.9-105.815-23-39.106-32.06-44.702-36.81-87.413-4.6-41.406 4.6-73.61 11.51-87.412 6.9-13.802 9.2-9.202 20.7-23.004 11.5-13.802 6.9-32.204 6.9-36.805 0-4.601 0-34.505-16.1-71.311-16.1-36.805-39.11-2.3-57.51 11.502Z"/><path fill="#FF9166" d="M62.108 552.08c2.06.824 3.603 2.754 5.766 5.447 4.64 4.386 9.84 9.303 15.344 14.514 19.283 13.3 61.042 29.609 162.917 37.547 177.126 13.802 462.367 36.805 547.479 27.604 68.09-7.361 170.992-16.869 213.936-20.703-10.74 23.77-41.871 75.451-80.516 92.013-48.307 20.703-20.703 43.707-209.331 43.707-188.627 0-342.749-20.703-393.357-32.205-50.607-11.502-151.822-62.109-165.624-75.911-8.681-8.681-46.371-44.475-75.504-72.052-8.24-5.683-12.375-10.817-15.344-14.514-2.036-1.925-3.966-3.747-5.766-5.447Z"/></svg>

<svg width="1343" height="753" viewBox="0 0 1343 753" fill="none" xmlns="http://www.w3.org/2000/svg">
<path d="M591.997 90.318C485.506 102.445 364.366 215.673 317.108 270.771L263.795 310.87C397.8 337.058 670.878 389.812 691.149 391.32C716.487 393.205 773.586 372.392 839 329.643C904.413 286.894 774.679 197.676 742.908 178.397C711.137 159.117 663.108 153.456 742.895 122.427C806.725 97.6039 812.848 85.0975 807.931 81.9473C780.324 79.6847 698.487 78.1913 591.997 90.318Z" fill="#FF9166"/>
<path d="M517.786 290.634C168.135 251.528 96.8251 437.855 85.3234 440.155C72.2882 444.757 42.0772 453.959 25.5148 453.959C4.81183 453.959 7.11207 453.959 16.3135 465.46C25.5149 476.962 32.4157 479.262 7.11207 486.163C-18.1916 493.064 27.8151 513.767 85.3234 578.177C142.832 642.586 202.64 667.889 278.551 704.695C354.462 741.5 570.694 753.002 759.321 753.002C947.948 753.002 977.853 647.186 1010.06 617.282C1035.82 593.359 1094.4 607.314 1120.47 617.282C1133.51 641.819 1182.12 700.094 1272.3 736.899C1385.01 782.906 1318.3 647.186 1299.9 617.282C1281.5 587.378 1272.3 589.678 1272.3 513.767C1272.3 437.856 1272.3 472.361 1299.9 426.355C1327.5 380.348 1295.3 304.437 1272.3 313.638C1253.89 320.999 1163.41 422.521 1120.47 472.361C1081.37 483.863 998.095 496.285 977.853 453.959C952.549 401.051 867.437 329.74 517.786 290.634Z" fill="#92BED7"/>
<path d="M622.054 569.826C695.901 462.486 505.698 457.928 447.732 452.756C419.93 445.162 392.158 443.706 379.106 452.474C362.791 463.433 414.796 555.317 419.066 561.206C432.462 579.684 440.029 594.333 455.465 609.587C470.901 624.841 522.57 617.815 506.072 598.085C492.875 582.301 496.667 572.757 499.944 563.312C502.265 586.402 579.683 619.75 622.054 569.826Z" fill="#7E82E1"/>
<ellipse cx="34.9377" cy="37.7877" rx="34.9377" ry="37.7877" transform="matrix(0.982011 -0.188823 0.208447 0.978034 142.622 413.453)" fill="white"/>
<ellipse cx="27.1409" cy="27.4834" rx="27.1409" ry="27.4834" transform="matrix(0.984947 -0.172856 0.190946 0.981601 152.272 421.232)" fill="black"/>
<path d="M1120.26 616.489L1122.56 471.568L1214.58 365.754C1226.84 347.351 1261.04 308.705 1281.29 310.545C1306.59 312.845 1313.49 377.255 1313.49 402.559C1313.49 422.802 1295.09 439.364 1283.59 450.866C1276.68 462.368 1272.08 479.154 1272.08 501.473C1272.08 547.48 1277.45 574.317 1283.59 586.586C1311.96 634.892 1368.7 736.567 1322.69 747.609C1276.68 758.65 1143.27 676.298 1120.26 616.489Z" fill="#7E82E1"/>
<path d="M604.988 110.416C554.38 117.317 489.971 156.423 439.364 190.928C398.927 218.498 327.589 274.37 296.856 298.953L326.647 292.142C371.887 265.305 474.329 202.429 522.176 165.624C581.984 119.617 662.496 124.218 703.902 119.617C737.027 115.937 782.113 101.215 800.516 94.3137H747.608C738.407 94.3137 655.595 103.515 604.988 110.416Z" fill="#7E82E1"/>
<path d="M627.991 135.72C644.094 133.419 724.605 128.819 726.905 128.819L713.103 135.72C704.669 135.72 684.579 136.18 671.698 138.02C655.595 140.32 623.391 163.324 614.189 167.924C604.988 172.525 515.275 218.532 494.572 236.934C478.009 251.656 418.661 275.273 391.057 285.241L347.351 289.842C378.022 277.574 449.025 246.596 487.671 220.832C535.978 188.627 611.889 138.02 627.991 135.72Z" fill="#7E82E1"/>
<path d="M563.581 218.531C591.185 204.729 591.185 207.029 623.39 177.124C649.153 153.201 684.732 148.754 699.301 149.52L703.901 156.423C700.067 156.423 690.559 154.582 683.198 156.423C673.997 158.723 671.697 165.624 653.294 184.026C634.891 202.429 630.291 200.129 584.284 223.132C547.479 241.535 492.271 272.206 469.267 285.241H432.462C466.967 267.605 541.498 229.573 563.581 218.531Z" fill="#7E82E1"/>
<path d="M692.4 177.126C699.761 167.924 707.735 161.79 710.802 161.023L722.304 167.924C716.937 170.225 705.282 177.586 701.601 188.627C697 202.429 701.601 204.73 694.7 213.931C687.799 223.132 676.298 264.538 609.588 271.439C556.22 276.96 535.21 287.542 531.377 292.142L499.172 285.241C500.705 283.708 505.153 280.181 510.674 278.34C517.575 276.04 542.878 269.139 577.383 262.238C611.888 255.337 671.697 209.33 680.898 197.829C690.1 186.327 683.199 188.627 692.4 177.126Z" fill="#7E82E1"/>
<path d="M729.205 200.128C731.045 183.566 740.706 180.959 745.307 181.726L754.508 186.327C752.208 186.327 746.227 192.768 740.706 218.532C733.805 250.736 770.611 230.033 777.512 253.037C784.413 276.04 738.406 282.941 717.703 285.241C697 287.542 694.7 289.842 673.997 294.443C657.434 298.123 641.025 303.644 634.891 305.944L607.287 299.043C624.156 292.909 659.735 280.181 667.096 278.34C676.297 276.04 703.901 271.439 713.102 266.839C722.304 262.238 724.604 250.736 724.604 236.934C724.604 223.132 726.904 220.831 729.205 200.128Z" fill="#7E82E1"/>
<path d="M798.215 246.136C798.215 231.414 793.615 216.231 791.314 211.631L805.116 223.132C805.116 223.132 800.976 222.672 802.816 230.033C805.116 239.235 807.417 241.535 814.318 259.938C821.219 278.34 814.318 273.74 809.717 289.842C805.116 305.944 793.615 301.344 770.611 312.845C752.209 322.047 747.608 325.881 747.608 326.647L720.004 317.446L726.905 310.545C731.506 307.478 742.547 300.424 749.908 296.743C759.11 292.142 775.212 287.542 791.314 273.74C807.417 259.938 798.215 264.538 798.215 246.136Z" fill="#7E82E1"/>
<path d="M395.656 457.765L381.854 450.864L397.959 446.265C404.093 449.332 417.742 455.926 423.262 457.765C430.163 460.065 430.163 466.968 430.163 476.169C430.163 485.37 434.764 492.271 437.064 494.572C439.365 496.872 446.266 492.271 453.167 492.271C460.068 492.271 469.269 496.872 473.87 508.374C478.47 519.875 471.569 522.176 469.269 526.776C467.212 530.891 471.569 531.377 473.87 540.578C475.71 547.939 486.905 557.447 492.272 561.281C492.272 563.582 489.512 567.722 478.47 565.882C464.668 563.582 460.068 540.578 457.767 535.978C455.467 531.377 455.467 529.077 453.167 515.275C450.866 501.473 443.965 506.073 434.764 506.073C425.563 506.073 427.863 499.172 423.262 489.971C418.662 480.77 423.262 483.07 420.962 473.869C418.662 464.667 414.059 466.967 395.656 457.765Z" fill="#3844B2"/>
<path d="M441.665 453.166C441.983 453.166 442.432 453.297 443.013 453.555C448.783 455.233 458.971 458.368 462.368 460.067C466.969 462.367 483.071 471.568 489.972 473.869C496.873 476.169 512.975 485.37 515.276 487.671C517.576 489.971 522.177 512.974 524.477 524.476C526.777 535.978 529.078 542.879 538.279 558.981C547.48 575.083 579.685 579.684 581.985 591.186C584.286 602.687 545.18 577.384 540.579 575.083C535.979 572.783 517.576 549.78 508.375 538.278C499.173 526.776 503.774 515.275 503.774 503.773C503.774 492.271 485.371 483.07 469.269 471.568C455.391 461.655 446.639 455.16 443.013 453.555C442.531 453.414 442.079 453.284 441.665 453.166Z" fill="#3844B2"/>
<path d="M512.975 464.667C503.774 460.987 495.34 457 492.272 455.466C500.707 456.233 521.257 460.067 526.777 460.067C533.678 460.067 545.18 466.968 549.781 471.568C554.381 476.169 549.781 496.872 549.781 512.974C549.781 529.077 556.682 531.377 570.484 531.377C584.286 531.377 602.688 538.278 611.89 542.879C621.091 547.479 618.791 552.08 618.791 556.681C618.791 561.281 611.89 558.981 611.89 554.38C611.89 549.78 588.886 540.578 579.685 542.879C570.484 545.179 563.583 547.479 558.982 542.879C554.381 538.278 545.18 522.176 542.88 512.974C540.579 503.773 540.579 494.572 538.279 483.07C535.979 471.568 524.477 469.268 512.975 464.667Z" fill="#3844B2"/>
<path d="M568.183 483.07L561.282 466.968L570.484 476.169C573.551 481.536 580.145 492.731 581.985 494.572C584.286 496.872 595.787 496.872 607.289 499.172C618.791 501.473 618.791 506.073 623.391 508.374C627.992 510.674 627.992 524.476 627.992 526.776C627.992 529.077 621.091 529.077 616.49 524.476C611.89 519.875 607.289 515.275 588.886 510.674C570.484 506.073 575.084 499.172 568.183 483.07Z" fill="#3844B2"/>
<path d="M384.154 485.37C373.113 474.329 374.952 463.134 377.253 460.067C381.086 460.833 388.753 466.048 388.753 471.568C388.753 478.469 397.955 485.37 407.156 492.271C416.357 499.172 414.061 508.374 423.262 515.275C432.464 522.176 437.064 517.575 439.365 535.978C441.665 554.38 437.064 552.08 439.365 561.281C441.205 568.642 451.633 593.486 450.866 595.786C450.866 603.454 449.942 599.007 446.262 593.486C441.661 586.585 432.46 563.582 430.159 542.879C427.859 522.176 418.658 519.875 409.456 508.374C400.255 496.872 397.956 499.172 384.154 485.37Z" fill="#3844B2"/>
<path d="M618.79 545.179C639.032 521.256 600.387 485.37 579.684 471.568C597.32 475.402 637.652 491.351 639.493 515.275C641.793 545.179 634.892 549.78 618.79 577.384C602.687 604.988 542.879 595.786 524.476 588.885C510.267 583.557 501.473 575.083 499.172 565.882C499.172 568.182 501.013 570.023 499.172 577.384C496.872 586.585 506.073 586.585 508.374 591.186C510.674 595.786 515.275 611.889 494.572 623.39C478.009 632.592 455.466 613.422 446.265 602.687L420.961 563.582C430.162 565.882 450.865 576.003 460.067 598.087C469.268 620.17 478.469 615.723 487.671 609.588C492.271 604.988 492.271 598.087 489.971 593.486C487.671 588.885 478.469 588.885 478.469 558.981C478.469 535.058 499.939 545.946 510.674 554.38C523.709 562.048 550.24 577.384 552.08 577.384C554.38 577.384 593.486 575.083 618.79 545.179Z" fill="#3844B3"/>
<path d="M1122.56 494.571V471.567C1126.4 472.334 1134.98 473.408 1138.66 471.568C1143.26 469.267 1193.87 439.363 1198.47 427.861C1203.07 416.36 1223.78 402.558 1242.18 386.456C1260.58 370.353 1267.48 372.653 1283.58 358.851C1296.47 347.809 1304.29 351.183 1306.59 354.25V365.752C1304.29 366.519 1302.45 365.752 1295.09 365.752C1285.89 365.752 1251.38 400.257 1237.58 409.458C1223.78 418.66 1212.27 439.363 1189.27 457.765C1170.87 472.487 1137.13 488.436 1122.56 494.571Z" fill="#3844B2"/>
<path d="M1122.56 529.076V506.185C1126.4 506.948 1134.98 508.017 1138.66 506.186C1143.26 503.896 1170.04 476.606 1182.37 476.169C1191.57 475.842 1239.88 448.486 1258.28 432.462C1276.68 416.439 1285.89 416.292 1301.99 402.558C1314.87 391.57 1308.89 404.107 1311.19 407.159L1308.89 414.059C1306.59 414.822 1302.45 430.161 1295.09 430.161C1285.89 430.161 1258.28 444.008 1244.48 453.165C1230.68 462.321 1212.27 474.138 1189.27 492.45C1170.87 507.101 1137.13 522.972 1122.56 529.076Z" fill="#3844B2"/>
<path d="M1121.15 555.68V534.88C1124.89 537.9 1138.29 543.904 1147.27 542.092C1158.5 539.827 1174.23 528.504 1196.69 514.917C1219.16 501.329 1216.91 503.594 1223.65 499.065C1229.04 495.441 1249.86 493.026 1259.59 492.271C1260.34 500.574 1261.39 517.181 1259.59 517.181C1257.34 517.181 1243.87 517.181 1223.65 519.446C1203.43 521.711 1158.5 553.415 1149.52 555.68C1142.33 557.491 1127.14 556.435 1121.15 555.68Z" fill="#3844B2"/>
<path d="M1120.26 591.185L1121.37 568.182C1122.9 568.949 1127.62 570.482 1129.46 570.482C1131.76 570.482 1154.77 570.482 1173.17 563.581C1191.57 556.68 1196.17 556.68 1214.58 554.38C1232.98 552.079 1265.18 552.079 1267.48 554.38C1269.32 556.22 1271.32 567.415 1272.09 572.782C1269.78 573.549 1262.88 575.083 1253.68 575.083C1242.18 575.083 1235.28 575.083 1214.58 572.782C1193.87 570.482 1184.67 572.782 1168.57 577.383C1152.47 581.984 1152.47 584.284 1138.67 591.185C1127.62 596.706 1121.8 594.252 1120.26 591.185Z" fill="#3844B2"/>
<path d="M1150.17 625.691C1137.29 612.809 1124.86 616.489 1120.26 616.489C1120.26 609.586 1120.26 614.187 1120.26 611.888C1120.25 600.387 1177.77 623.39 1180.07 630.291C1182.37 637.192 1193.87 634.892 1214.58 646.394C1235.28 657.895 1249.08 644.093 1255.98 646.394C1261.5 648.234 1293.55 653.295 1308.89 655.595L1322.69 687.8C1319.62 690.867 1312.11 696.541 1306.59 694.701C1299.69 692.4 1292.79 683.199 1276.69 673.998C1260.58 664.796 1253.68 669.397 1239.88 676.298C1226.08 683.199 1219.18 671.697 1191.57 653.295C1163.97 634.892 1166.27 641.793 1150.17 625.691Z" fill="#3844B2"/>
<path d="M1258.28 602.687C1281.28 598.087 1274.38 598.087 1278.98 598.087L1283.58 604.987C1277.45 608.821 1264.26 618.329 1260.58 625.69C1255.98 634.892 1235.28 624.185 1200.77 612.683C1166.27 601.181 1120.26 608.456 1120.26 601.182C1120.26 591.98 1120.26 602.688 1120.26 595.787C1117.96 591.186 1136.82 600.386 1138.66 600.386H1138.67C1140.97 600.386 1159.37 600.386 1180.07 598.087C1200.77 595.786 1200.77 598.087 1209.97 600.387C1219.18 602.687 1235.28 607.288 1258.28 602.687Z" fill="#3844B2"/>
<path d="M1239.88 333.548C1225.16 344.589 1155.53 430.162 1122.56 471.568C1128.08 471.568 1138.66 466.967 1143.27 464.667C1165.5 438.597 1210.43 385.536 1212.28 381.855C1214.58 377.255 1235.28 361.152 1258.28 333.548C1281.29 305.943 1285.89 333.548 1299.69 365.753C1313.49 397.958 1288.19 434.763 1283.59 437.063C1278.98 439.364 1255.98 476.169 1253.68 487.671C1251.38 499.172 1253.68 563.581 1290.49 627.991C1327.29 692.4 1324.99 715.403 1322.69 729.205C1320.39 743.007 1267.48 720.004 1232.98 708.502C1198.47 697.001 1120.26 614.189 1120.26 616.489C1120.26 618.329 1127.93 634.125 1138.66 648.694C1159.37 673.997 1250.46 740.247 1292.79 747.608C1335.11 754.969 1340.33 743.007 1341.09 733.806C1345.69 713.103 1334.19 667.096 1311.19 627.991C1288.19 588.885 1279.13 583.289 1274.38 540.578C1269.78 499.172 1278.98 466.968 1285.89 453.166C1292.79 439.364 1295.09 443.964 1306.59 430.162C1318.09 416.36 1313.49 397.958 1313.49 393.357C1313.49 388.756 1313.49 358.852 1297.39 322.046C1281.29 285.241 1258.28 319.746 1239.88 333.548Z" fill="#3844B2"/>
<path d="M62.1084 552.08C64.1681 552.904 65.7113 554.834 67.8743 557.527C72.5145 561.913 77.7137 566.83 83.2183 572.041C102.501 585.341 144.26 601.65 246.135 609.588C423.261 623.39 708.502 646.393 793.614 637.192C861.704 629.831 964.606 620.323 1007.55 616.489C996.81 640.259 965.679 691.94 927.034 708.502C878.727 729.205 906.331 752.209 717.703 752.209C529.076 752.209 374.954 731.506 324.346 720.004C273.739 708.502 172.524 657.895 158.722 644.093C150.041 635.412 112.351 599.618 83.2183 572.041C74.9786 566.358 70.8428 561.224 67.8743 557.527C65.8375 555.602 63.9084 553.78 62.1084 552.08Z" fill="#FF9166"/>
</svg>
